X: 37513
T: Slip Jig De Chocobo
R: slip jig
M: 9/8
K: Gmajor
|:B2d3B cAF|G2D3E =F2E|D2G3A B2c|d2g2e^c d2=c|
B2d3B cA^F|G2D3E =F2E|D2G3A B2c|d2g2de =f3|
e2c A2^F Ace|d2g2ed BGB|c2A2FD FAc|B2B BGB d2=f|
ecA FDF Ace|d2g2ed BGB|c2c B2B A2B|cAB cde age:|

